**kern	**kern	**dynam
*part1	*part1	*part1
*staff2	*staff1	*
*I"Piano	*	*
*clefG2	*clefG2	*
*k[b-e-a-]	*k[b-e-a-]	*
=1	=1	=1
*^	*	*
!	!	!LO:TX:a:i:t=ten.	!
4g-X~	8e-	8cc'L 8ee- 8aan 8bb-	.
.	8r	8cc' 8ee- 8aa 8bb-	.
8r	8r	8cc'J 8ee- 8aa 8bb-	.
*clefF4	*	*	*
=	=	=	=
!	!	!LO:TX:a:i:t=ten.	!
4f~	8E-	8b-'L 8dd 8aa-X 8bb-	[
.	8r	8b-' 8dd 8aa- 8bb-	.
8r	8r	8b-'J 8dd 8aa- 8bb-	pp
*v	*v	*	*
=	=	=
8EE-'L	8b-'L 8ee- 8gg 8bb-	.
8BB-'	8b-' 8ee- 8gg 8bb-	.
8E-'J	8b-'J 8ee- 8gg 8bb-	.
=	=	=
8G'L	8b-'L 8ee- 8gg 8bb-	.
8B-'	8b-' 8ee- 8gg 8bb-	.
8e-'J	8b-'J 8ee- 8gg 8bb-	.
=	=	=
8gL	8b-'L 8ee- 8gg 8bb-	.
8e-	8b-' 8ee- 8gg 8bb-	.
8B-J	8b-'J 8ee- 8gg 8bb-	.
=	=	=
!	!LO:TX:b:i:t=ten.	!
4b-~	8ee-'L 8gg 8bb-	.
.	8ee-' 8gg 8bb-	.
8r	8ee-'J 8gg 8bb-	.
=	=	=
8E- 8e-	8cc'L 8gg 8aan	.
8r	8cc' 8gg 8aa	<
8r	8cc'J 8gg 8aa	.
=	=	=
*-	*-	*-
!!!system-decoration: {(s1,s2)}
